Numix-Circle/48x48/apps/geppetto.svg

<?xml version="1.0" encoding="UTF-8" standalone="no"?>
<svg
   xmlns:dc="http://purl.org/dc/elements/1.1/"
   xmlns:cc="http://creativecommons.org/ns#"
   xmlns:rdf="http://www.w3.org/1999/02/22-rdf-syntax-ns#"
   xmlns:svg="http://www.w3.org/2000/svg"
   xmlns="http://www.w3.org/2000/svg"
   xmlns:xlink="http://www.w3.org/1999/xlink"
   xmlns:sodipodi="http://sodipodi.sourceforge.net/DTD/sodipodi-0.dtd"
   xmlns:inkscape="http://www.inkscape.org/namespaces/inkscape"
   viewBox="0 0 48 48"
   id="svg2"
   version="1.1"
   inkscape:version="0.48.5 r10040"
   width="100%"
   height="100%"
   sodipodi:docname="geppetto.svg">
  <metadata
     id="metadata61">
    <rdf:RDF>
      <cc:Work
         rdf:about="">
        <dc:format>image/svg+xml</dc:format>
        <dc:type
           rdf:resource="http://purl.org/dc/dcmitype/StillImage" />
      </cc:Work>
    </rdf:RDF>
  </metadata>
  <sodipodi:namedview
     pagecolor="#ffffff"
     bordercolor="#666666"
     borderopacity="1"
     objecttolerance="10"
     gridtolerance="10"
     guidetolerance="10"
     inkscape:pageopacity="0"
     inkscape:pageshadow="2"
     inkscape:window-width="1280"
     inkscape:window-height="998"
     id="namedview59"
     showgrid="false"
     showguides="true"
     inkscape:guide-bbox="true"
     inkscape:zoom="4.9166667"
     inkscape:cx="21.403722"
     inkscape:cy="-7.0140339"
     inkscape:window-x="0"
     inkscape:window-y="0"
     inkscape:window-maximized="1"
     inkscape:current-layer="svg2">
    <inkscape:grid
       type="xygrid"
       id="grid3055" />
  </sodipodi:namedview>
  <defs
     id="defs4">
    <linearGradient
       id="linearGradient3830">
      <stop
         style="stop-color:#614899;stop-opacity:1;"
         offset="0"
         id="stop3832" />
      <stop
         style="stop-color:#694ea6;stop-opacity:1;"
         offset="1"
         id="stop3834" />
    </linearGradient>
    <linearGradient
       id="linearGradient3764"
       x1="1"
       x2="47"
       gradientUnits="userSpaceOnUse"
       gradientTransform="matrix(0,-1,1,0,-1.5e-6,47.999998)">
      <stop
         stop-color="#366ee0"
         stop-opacity="1"
         id="stop7" />
      <stop
         offset="1"
         stop-color="#487ce3"
         stop-opacity="1"
         id="stop9" />
    </linearGradient>
    <clipPath
       id="clipPath-938941486">
      <g
         transform="translate(0,-1004.3622)"
         id="g12">
        <path
           d="m -24 13 c 0 1.105 -0.672 2 -1.5 2 -0.828 0 -1.5 -0.895 -1.5 -2 0 -1.105 0.672 -2 1.5 -2 0.828 0 1.5 0.895 1.5 2 z"
           transform="matrix(15.333333,0,0,11.5,414.99999,878.8622)"
           fill="#1890d0"
           id="path14" />
      </g>
    </clipPath>
    <clipPath
       id="clipPath-944331523">
      <g
         transform="translate(0,-1004.3622)"
         id="g17">
        <path
           d="m -24 13 c 0 1.105 -0.672 2 -1.5 2 -0.828 0 -1.5 -0.895 -1.5 -2 0 -1.105 0.672 -2 1.5 -2 0.828 0 1.5 0.895 1.5 2 z"
           transform="matrix(15.333333,0,0,11.5,414.99999,878.8622)"
           fill="#1890d0"
           id="path19" />
      </g>
    </clipPath>
    <clipPath
       clipPathUnits="userSpaceOnUse"
       id="clipPath3051">
      <rect
         style="opacity:0.1;fill:#eaebf2;fill-opacity:1;fill-rule:nonzero;stroke:none"
         id="rect3053"
         width="36.203388"
         height="59.18644"
         x="28.067797"
         y="9.7627125" />
    </clipPath>
    <linearGradient
       inkscape:collect="always"
       xlink:href="#linearGradient3830"
       id="linearGradient3836"
       x1="1"
       y1="24"
       x2="47"
       y2="24"
       gradientUnits="userSpaceOnUse" />
    <linearGradient
       inkscape:collect="always"
       xlink:href="#linearGradient3830"
       id="linearGradient3838"
       gradientUnits="userSpaceOnUse"
       x1="1"
       y1="24"
       x2="47"
       y2="24" />
  </defs>
  <g
     id="g21">
    <path
       d="m 36.31 5 c 5.859 4.062 9.688 10.831 9.688 18.5 c 0 12.426 -10.07 22.5 -22.5 22.5 c -7.669 0 -14.438 -3.828 -18.5 -9.688 c 1.037 1.822 2.306 3.499 3.781 4.969 c 4.085 3.712 9.514 5.969 15.469 5.969 c 12.703 0 23 -10.298 23 -23 c 0 -5.954 -2.256 -11.384 -5.969 -15.469 c -1.469 -1.475 -3.147 -2.744 -4.969 -3.781 z m 4.969 3.781 c 3.854 4.113 6.219 9.637 6.219 15.719 c 0 12.703 -10.297 23 -23 23 c -6.081 0 -11.606 -2.364 -15.719 -6.219 c 4.16 4.144 9.883 6.719 16.219 6.719 c 12.703 0 23 -10.298 23 -23 c 0 -6.335 -2.575 -12.06 -6.719 -16.219 z"
       opacity="0.05"
       id="path23" />
    <path
       d="m 41.28 8.781 c 3.712 4.085 5.969 9.514 5.969 15.469 c 0 12.703 -10.297 23 -23 23 c -5.954 0 -11.384 -2.256 -15.469 -5.969 c 4.113 3.854 9.637 6.219 15.719 6.219 c 12.703 0 23 -10.298 23 -23 c 0 -6.081 -2.364 -11.606 -6.219 -15.719 z"
       opacity="0.1"
       id="path25" />
    <path
       d="m 31.25 2.375 c 8.615 3.154 14.75 11.417 14.75 21.13 c 0 12.426 -10.07 22.5 -22.5 22.5 c -9.708 0 -17.971 -6.135 -21.12 -14.75 a 23 23 0 0 0 44.875 -7 a 23 23 0 0 0 -16 -21.875 z"
       opacity="0.2"
       id="path27" />
  </g>
  <g
     id="g29"
     style="fill:url(#linearGradient3836);fill-opacity:1"
     transform="matrix(0,-1,1,0,0,48)">
    <path
       d="M 24,1 C 36.703,1 47,11.297 47,24 47,36.703 36.703,47 24,47 11.297,47 1,36.703 1,24 1,11.297 11.297,1 24,1 z"
       id="path31"
       style="fill:url(#linearGradient3838);fill-opacity:1"
       inkscape:connector-curvature="0" />
  </g>
  <g
     id="g33" />
  <g
     id="g55">
    <path
       d="m 40.03 7.531 c 3.712 4.084 5.969 9.514 5.969 15.469 0 12.703 -10.297 23 -23 23 c -5.954 0 -11.384 -2.256 -15.469 -5.969 4.178 4.291 10.01 6.969 16.469 6.969 c 12.703 0 23 -10.298 23 -23 0 -6.462 -2.677 -12.291 -6.969 -16.469 z"
       opacity="0.1"
       id="path57" />
  </g>
  <path
     id="path3840"
     d="m 24,13.000092 c -5.644068,0 -7,2.516949 -7,7 0,3 0.723604,4.355404 2,5 -0.712143,1.300683 -1.322113,2 -1.34375,4 0.03375,5 10.34375,2 10.34375,5 0,3 -6.629966,1.692859 -10,1 l -1,3 c 2.039933,1.201119 5.125097,1.298744 8,1.34375 5,0.160658 7.599046,-0.911547 7.53125,-5.34375 0.03764,-2.354759 -1.08585,-5 -4.53125,-5 -2,0 -6,-0.28125 -6,-1.28125 0,-0.31303 0,-0.916714 1,-1.1875 4,0.137114 9,-0.53125 9,-6.53125 0,-1.388013 0.02263,-3.939661 -1,-5 l 2,0 0,-2 -9,0 z m 0.5,3 c 1.932997,0 3.5,1.567003 3.5,3.5 0,1.932997 -1.567003,3.5 -3.5,3.5 -1.932997,0 -3.5,-1.567003 -3.5,-3.5 0,-1.932997 1.567003,-3.5 3.5,-3.5 z"
     style="fill:#000000;fill-opacity:1;stroke:none;opacity:0.09"
     inkscape:connector-curvature="0" />
  <path
     style="opacity:1;fill:#f9f9f9;fill-opacity:1;stroke:none"
     d="M 23 12 C 17.355932 12 16 14.516949 16 19 C 16 22 16.723604 23.355404 18 24 C 17.287857 25.300683 16.677887 26 16.65625 28 C 16.689997 33 27 30 27 33 C 27 36 20.370034 34.692859 17 34 L 16 37 C 18.039933 38.201119 21.125097 38.298744 24 38.34375 C 29 38.504408 31.599046 37.432203 31.53125 33 C 31.568893 30.645241 30.4454 28 27 28 C 25 28 21 27.71875 21 26.71875 C 21 26.40572 21 25.802036 22 25.53125 C 26 25.668364 31 25 31 19 C 31 17.611987 31.02263 15.060339 30 14 L 32 14 L 32 12 L 23 12 z M 23.5 15 C 25.432997 15 27 16.567003 27 18.5 C 27 20.432997 25.432997 22 23.5 22 C 21.567003 22 20 20.432997 20 18.5 C 20 16.567003 21.567003 15 23.5 15 z "
     id="path3057" />
</svg>

<svg xmlns="http://www.w3.org/2000/svg" viewBox="0 0 48 48">
 <defs>
  <linearGradient id="linearGradient3836" x1="1" x2="47" gradientUnits="userSpaceOnUse">
   <stop style="stop-color:#614899;stop-opacity:1"/>
   <stop offset="1" style="stop-color:#694ea6;stop-opacity:1"/>
  </linearGradient>
 </defs>
 <g>
  <path d="m 36.31 5 c 5.859 4.062 9.688 10.831 9.688 18.5 c 0 12.426 -10.07 22.5 -22.5 22.5 c -7.669 0 -14.438 -3.828 -18.5 -9.688 c 1.037 1.822 2.306 3.499 3.781 4.969 c 4.085 3.712 9.514 5.969 15.469 5.969 c 12.703 0 23 -10.298 23 -23 c 0 -5.954 -2.256 -11.384 -5.969 -15.469 c -1.469 -1.475 -3.147 -2.744 -4.969 -3.781 z m 4.969 3.781 c 3.854 4.113 6.219 9.637 6.219 15.719 c 0 12.703 -10.297 23 -23 23 c -6.081 0 -11.606 -2.364 -15.719 -6.219 c 4.16 4.144 9.883 6.719 16.219 6.719 c 12.703 0 23 -10.298 23 -23 c 0 -6.335 -2.575 -12.06 -6.719 -16.219 z" style="opacity:0.05"/>
  <path d="m 41.28 8.781 c 3.712 4.085 5.969 9.514 5.969 15.469 c 0 12.703 -10.297 23 -23 23 c -5.954 0 -11.384 -2.256 -15.469 -5.969 c 4.113 3.854 9.637 6.219 15.719 6.219 c 12.703 0 23 -10.298 23 -23 c 0 -6.081 -2.364 -11.606 -6.219 -15.719 z" style="opacity:0.1"/>
  <path d="m 31.25 2.375 c 8.615 3.154 14.75 11.417 14.75 21.13 c 0 12.426 -10.07 22.5 -22.5 22.5 c -9.708 0 -17.971 -6.135 -21.12 -14.75 a 23 23 0 0 0 44.875 -7 a 23 23 0 0 0 -16 -21.875 z" style="opacity:0.2"/>
 </g>
 <g transform="matrix(0,-1,1,0,0,48)" style="fill:url(#linearGradient3836);fill-opacity:1">
  <path d="M 24,1 C 36.703,1 47,11.297 47,24 47,36.703 36.703,47 24,47 11.297,47 1,36.703 1,24 1,11.297 11.297,1 24,1 z"/>
 </g>
 <g>
  <path d="m 40.03 7.531 c 3.712 4.084 5.969 9.514 5.969 15.469 0 12.703 -10.297 23 -23 23 c -5.954 0 -11.384 -2.256 -15.469 -5.969 4.178 4.291 10.01 6.969 16.469 6.969 c 12.703 0 23 -10.298 23 -23 0 -6.462 -2.677 -12.291 -6.969 -16.469 z" style="opacity:0.1"/>
 </g>
 <path d="m 24 13 c -5.644 0 -7 2.517 -7 7 0 3 0.724 4.355 2 5 -0.712 1.301 -1.322 2 -1.344 4 0.034 5 10.344 2 10.344 5 0 3 -6.63 1.693 -10 1 l -1 3 c 2.04 1.201 5.125 1.299 8 1.344 5 0.161 7.599 -0.912 7.531 -5.344 0.038 -2.355 -1.086 -5 -4.531 -5 -2 0 -6 -0.281 -6 -1.281 0 -0.313 0 -0.917 1 -1.188 4 0.137 9 -0.531 9 -6.531 0 -1.388 0.023 -3.94 -1 -5 l 2 0 0 -2 -9 0 z m 0.5 3 c 1.933 0 3.5 1.567 3.5 3.5 0 1.933 -1.567 3.5 -3.5 3.5 -1.933 0 -3.5 -1.567 -3.5 -3.5 0 -1.933 1.567 -3.5 3.5 -3.5 z" style="fill:#000;opacity:0.09;fill-opacity:1;stroke:none"/>
 <path d="m 23 12 c -5.644 0 -7 2.517 -7 7 c 0 3 0.724 4.355 2 5 c -0.712 1.301 -1.322 2 -1.344 4 c 0.034 5 10.344 2 10.344 5 c 0 3 -6.63 1.693 -10 1 l -1 3 c 2.04 1.201 5.125 1.299 8 1.344 c 5 0.161 7.599 -0.912 7.531 -5.344 c 0.038 -2.355 -1.086 -5 -4.531 -5 c -2 0 -6 -0.281 -6 -1.281 c 0 -0.313 0 -0.917 1 -1.188 c 4 0.137 9 -0.531 9 -6.531 c 0 -1.388 0.023 -3.94 -1 -5 l 2 0 l 0 -2 l -9 0 z m 0.5 3 c 1.933 0 3.5 1.567 3.5 3.5 c 0 1.933 -1.567 3.5 -3.5 3.5 c -1.933 0 -3.5 -1.567 -3.5 -3.5 c 0 -1.933 1.567 -3.5 3.5 -3.5 z" style="fill:#f9f9f9;opacity:1;fill-opacity:1;stroke:none"/>
</svg>
